X: 16
T: Saint Anne's Reel
I: Saint Anne's Reel	R-6	D	reel	Set 18
I: Sainte Agathe	R-6	D	reel	Set 18
M: C|
R: reel
K: D
A2| "D"f2fg fedB| A2FG AFAd| "G"BGGF G2FG| "D"BAAF A2de|
    "D"f2fg fedB| A2FG AFAd| "G"BGBd "A"cAce| "D"dfec d2 :|
|:ag| "D"fdfa fdfa| "A"aggf g2gf| edcB ABce| "D"baa^g a2 a=g|
    "D"fdfa fdfa| "A"aggf g2gf| edcB ABce| "D"fdec d2 :|
%%text Roaring Jelly  R-6

#include "RightHeader.h"
% ---------- set 19 ----------
% Roaring Jelly (D) / Squirrel in the Tree (G) / Fair Jenny's (D)
%%text Set 19
%%vskip -1cm
%%scale .6
